X: 343
T:Ach hulff mich leid
N: Derived from Jos2802-Ach_hulff_mich_leid.krn
C: Josquin des Prez
%%abc-version 2.0
%%abcx-abcm2ps-target-version 5.9.1 (29 Sep 2008)
%%abc-creator hum2abc beta
%%abcx-conversion-date 2019/02/12 16:15:54
%%abc-edited-by Jesse Rodin
%%abc-edited-by Jesse Rodin; Victoria Chang 2011/07/27
%%abcx-initial-encoding-date 2011/07/27/
%%humdrum-veritas 2150405233
%%humdrum-veritas-data 2689606171
%%linebreak <none>
%%barnumbers 0
L: 1/4
M: 2/1
Q: 1/2=120
%%staves [1 2 3 4]
V: 1 clef=treble
V: 2 clef=treble-8
V: 3 clef=treble-8
V: 4 clef=bass
K: Bb
[V:1] z8 | 
[V:2] z8 | 
[V:3] z8 | 
[V:4] D,8 | 
[V:1] z8 | 
[V:2] z8 | 
[V:3] z4A4- | 
[V:4] F,6E,2 | 
[V:1] z8 | 
[V:2] z8 | 
[V:3] A4A4 | 
[V:4] D,4D,2C,2- | 
[V:1] z8 | 
[V:2] z8 | 
[V:3] G4F3G | 
[V:4] C,2E,2D,4- | 
[V:1] z8 | 
[V:2] z8 | 
[V:3] AFB4A2 | 
[V:4] D,2C,B,,C,2C,2 | 
[V:1] z8 | 
[V:2] d8 | 
[V:3] B6AG | 
[V:4] B,,8 | 
[V:1] z8 | 
[V:2] f6e2 | 
[V:3] F4z4 | 
[V:4] z4F,4 | 
[V:1] z8 | 
[V:2] d4c2B2- | 
[V:3] z8 | 
[V:4] B,4A,2G,2- | 
[V:1] z8 | 
[V:2] B2AGF2f2- | 
[V:3] z4A4 | 
[V:4] G,2F,2D,4 | 
[V:1] z8 | 
[V:2] f2edc4 | 
[V:3] A4A4 | 
[V:4] z4F,4 | 
[V:1] z8 | 
[V:2] B8 | 
[V:3] B3AG2F2 | 
[V:4] B,,4E,2D,2- | 
[V:1] z8 | 
[V:2] z4d4- | 
[V:3] E4D3=E | 
[V:4] D,2C,2D,4- | 
[V:1] z8 | 
[V:2] d4c4 | 
[V:3] F2G2A3B | 
[V:4] D,4F,4 | 
[V:1] z8 | 
[V:2] f8- | 
[V:3] c2d4cB | 
[V:4] F,4D,4 | 
[V:1] z8 | 
[V:2] f4d2f2- | 
[V:3] A4B4- | 
[V:4] F,4B,,4 | 
[V:1] z8 | 
[V:2] f=ed4c2 | 
[V:3] B4G4 | 
[V:4] z4E,4 | 
[V:1] z8 | 
[V:2] d2cBA2B2- | 
[V:3] A3Bc2F2- | 
[V:4] D,2F,3E,D,2- | 
[V:1] z8 | 
[V:2] B2AGA2B2- | 
[V:3] F2=ED=E2F2 | 
[V:4] D,2C,B,,C,2D,2 | 
[V:1] z8 | 
[V:2] BAG4^F2 | 
[V:3] GF=EDC4 | 
[V:4] G,,4A,,4 | 
[V:1] z8 :|]  
[V:2] G8 :|]  
[V:3] D8 :|]  
[V:4] G,,8 :|]  
[V:1] G8 | 
[V:2] d4d2d2- | 
[V:3] B8 | 
[V:4] z4G,4 | 
[V:1] G4A4 | 
[V:2] d2B2c4 | 
[V:3] B4A4 | 
[V:4] G,4F,4 | 
[V:1] B8 | 
[V:2] B4G2g2- | 
[V:3] G4B4- | 
[V:4] G,8 | 
[V:1] B4B4 | 
[V:2] g2f=ed2=e2 | 
[V:3] B4B4 | 
[V:4] G,4G,4 | 
[V:1] A8 | 
[V:2] f6d2 | 
[V:3] c2d4cB | 
[V:4] F,2D,4F,2 | 
[V:1] z8 | 
[V:2] e2f4ed | 
[V:3] c2d4cB | 
[V:4] E,2D,2B,,4 | 
[V:1] A6A2- | 
[V:2] c8 | 
[V:3] A8 | 
[V:4] z4F,4 | 
[V:1] A2GFG2F2- | 
[V:2] c6d2- | 
[V:3] A4G2A2- | 
[V:4] F,4E,2D,2- | 
[V:1] F2=EDE2D2 | 
[V:2] d2B2c2d2 | 
[V:3] A2GFG4- | 
[V:4] D,2D,2C,2B,,2 | 
[V:1] G2G4^F2 | 
[V:2] =edcBA4 | 
[V:3] G4D4 | 
[V:4] C,4D,4 | 
[V:1] G8 | 
[V:2] G8 | 
[V:3] d6e2 | 
[V:4] G,,2B,,4C,2 | 
[V:1] z8 | 
[V:2] F8 | 
[V:3] d2cBA4 | 
[V:4] D,8 | 
[V:1] G8 | 
[V:2] B8 | 
[V:3] G2B3cd2- | 
[V:4] z4G,4 | 
[V:1] G4A2B2- | 
[V:2] B4A2G2 | 
[V:3] d2cBc2B2 | 
[V:4] G,4F,2G,2- | 
[V:1] B2AGF4 | 
[V:2] B2c2d4 | 
[V:3] G4A4 | 
[V:4] G,2F,2D,4 | 
[V:1] z2G4A2 | 
[V:2] d4d4 | 
[V:3] B2G4F2 | 
[V:4] G,2B,4A,2 | 
[V:1] B2A2G2B2- | 
[V:2] d8 | 
[V:3] G2D2d4- | 
[V:4] G,2F,2G,4- | 
[V:1] B2AGA4- | 
[V:2] B4f4- | 
[V:3] d2B2c4 | 
[V:4] G,4F,4 | 
[V:1] A8 | 
[V:2] f2=edc4 | 
[V:3] d2cBA4 | 
[V:4] D,4F,4 | 
[V:1] F4G4- | 
[V:2] d4e2d2- | 
[V:3] B4G4- | 
[V:4] B,,4z4 | 
[V:1] G4A4 | 
[V:2] d2cBc4 | 
[V:3] G4F4 | 
[V:4] B,4A,4 | 
[V:1] D4z4 | 
[V:2] B2d4cB | 
[V:3] G8 | 
[V:4] G,2B,4A,2 | 
[V:1] z2A2B2AG | 
[V:2] A4z4 | 
[V:3] D4z2d2- | 
[V:4] F,4G,4 | 
[V:1] F2G2A4 | 
[V:2] z8 | 
[V:3] d2c2A4 | 
[V:4] D,2E,2F,4 | 
[V:1] AGF=ED4 | 
[V:2] z8 | 
[V:3] F4G2D2 | 
[V:4] D,4B,4 | 
[V:1] C2B,2A,4 | 
[V:2] z4z2d2- | 
[V:3] F2G2D4 | 
[V:4] A,2G,4^F,2 | 
[V:1] G,A,B,CD=EFG | 
[V:2] dcBAB2AG | 
[V:3] z2d4B2 | 
[V:4] G,8 | 
[V:1] A2B3AG2- | 
[V:2] F2B3cd2- | 
[V:3] c2d3cB2 | 
[V:4] z4G,4 | 
[V:1] G2^F2G2A2- | 
[V:2] dcd2B2c2 | 
[V:3] A4G2c2- | 
[V:4] D,4G,2F,2- | 
[V:1] A2F2G2F2 | 
[V:2] A4z4 | 
[V:3] c2A2B4- | 
[V:4] F,2F,2E,2D,2 | 
[V:1] D2F3=ED2- | 
[V:2] z8 | 
[V:3] B4B4 | 
[V:4] B,,4z4 | 
[V:1] D2C2D4 | 
[V:2] z2A4B2 | 
[V:3] A4F4 | 
[V:4] F,4D,4 | 
[V:1] z8 | 
[V:2] c2A4B2- | 
[V:3] =E2F4D2- | 
[V:4] C,2D,4G,,2 | 
[V:1] z8 | 
[V:2] B2c2A3B | 
[V:3] D2C2F3G | 
[V:4] B,,2A,,2F,,4 | 
[V:1] z8 | 
[V:2] c2d4cB | 
[V:3] A2B4AG | 
[V:4] F,,2B,,4C,2 | 
[V:1] F8 | 
[V:2] A4d2d2- | 
[V:3] F4B4- | 
[V:4] D,4z4 | 
[V:1] G4A4 | 
[V:2] d2cBc4 | 
[V:3] B4A4 | 
[V:4] G,4F,4 | 
[V:1] B2AGF4 | 
[V:2] d4d2c2- | 
[V:3] G4D2F2 | 
[V:4] B,4A,4 | 
[V:1] z8 | 
[V:2] c2F2G4 | 
[V:3] C2D2C4 | 
[V:4] G,2F,4=E,2 | 
[V:1] z4F4- | 
[V:2] F8 | 
[V:3] c4d2c2- | 
[V:4] F,4D,2F,2 | 
[V:1] F4E4 | 
[V:2] z4c4 | 
[V:3] cBB4A2 | 
[V:4] B,,4C,4 | 
[V:1] D2D4CB, | 
[V:2] F2B3AG2- | 
[V:3] B2AGF2G2 | 
[V:4] B,,8 | 
[V:1] A,4G,4 | 
[V:2] G2F2G2F=E | 
[V:3] D4z4 | 
[V:4] z4G,,4 | 
[V:1] z4D4 | 
[V:2] D2d4cB | 
[V:3] D4F4- | 
[V:4] B,,6C,2 | 
[V:1] F6G2 | 
[V:2] A8 | 
[V:3] F2G2A2B2 | 
[V:4] D,2E,2F,4- | 
[V:1] A2B2cBAG | 
[V:2] z4c4 | 
[V:3] c2BAG4 | 
[V:4] F,4E,4 | 
[V:1] F4G4 | 
[V:2] d6=e2 | 
[V:3] A4B4 | 
[V:4] D,4G,4 | 
[V:1] A4z2F2- | 
[V:2] f2d2=e2f2- | 
[V:3] A2GF=E2D2- | 
[V:4] D,4C,2D,2- | 
[V:1] F2G2A4 | 
[V:2] f2=edc4 | 
[V:3] D2G4^F2 | 
[V:4] D,2C,B,,A,,2A,,2 | 
[V:1] B4G2B2- | 
[V:2] B4z2B2- | 
[V:3] G8 | 
[V:4] G,,8 | 
[V:1] B2AGF2A2- | 
[V:2] B2c2d2c2- | 
[V:3] G2F=ED2F2 | 
[V:4] z8 | 
[V:1] A2G4^F2 | 
[V:2] cBAGA4 | 
[V:3] =E4D4 | 
[V:4] z8 | 
[V:1] G8 |]  
[V:2] G8 |]  
[V:3] d8 |]  
[V:4] G,,8 |]  



